release/img/icons/remove.svg

<svg width="15" height="19" viewBox="0 0 15 19" fill="none" xmlns="http://www.w3.org/2000/svg">
<path d="M1.57178 16.7832C1.57178 17.8832 2.47178 18.7832 3.57178 18.7832H11.5718C12.6718 18.7832 13.5718 17.8832 13.5718 16.7832V4.7832H1.57178V16.7832ZM14.5718 1.7832H11.0718L10.0718 0.783203H5.07178L4.07178 1.7832H0.571777V3.7832H14.5718V1.7832Z" fill="#FF8B37"/>
</svg>

<svg width="15" height="19" fill="none" xmlns="http://www.w3.org/2000/svg"><path d="M1.572 16.783c0 1.1.9 2 2 2h8c1.1 0 2-.9 2-2v-12h-12v12zm13-15h-3.5l-1-1h-5l-1 1h-3.5v2h14v-2z" fill="#FF8B37"/></svg>
